X: 1
T: One Swallow does not a summer make
C: Noel Jackson. April 2020
S: tradtunes and ECD lists 2020-11-3
N: Third place new tune prize in the Northumbrian Pipers Annual Competitions 2020.
L: 1/8
Q: 3/8=80
M: 6/8
K: Gm
P: Hopefully
|: GAB |\
"Gm" d2g g^fg | "D7"a2^f d2c | "Gm" B2G "D7" AG^F | "Gm" G3 ABc |\
"Cm6"e2a g2e | "Gm" d2B GAB | "Cm"c2a g2^f | "D7"d3 ||
dcB |\
"D7" c2A ^F2c | "Gm" d2B G2D | "Cm"E2G c2B | "D7"A3 ABc |\
"Gm"Bcd "D7"ceb | "Gm"a2g d2e | "Gm"dBc "D7"B2A | "Gm" G3 :|
|: G^FE |\
"D7"D^FA cBA | "Gm"B2G BAG | "F"A2c f2e | "Bb"d3 d^cd |\
"D7"c2A ^F2e | "Gm"d2B G2B | "A7" A^GA Bc^c | "D" d3 ||
dcB |\
"D7"c2A ^F2e | "Gm"B2G BAG | "Cm"E2G c2^c | "D7"d3 DcB |\
"D7"c2A ^F=fe | "Gm"d2B G2D | "Eb"EGe "D7" ^FAd | "Gm"G3 :|
P:Harmony
|: GAB |\
"Gm" D2 B BAG | "D7" d2A ^FED | "Gm" G2d "D7" A2d | "Gm"G3 ^FGA |\
"Cm6" c2e g2d | "Gm" B2d g2b | "Cm"g2e c2B | "D7"d3 ||
^fed |\
"D7"^F2A c3 | "Gm" G2B d3 | "Cm" A2c e2d | "D7"^f3 cBA |\
"Gm" G2B "D7" A2c | "Gm"d2g d2c | "Gm" G B2 "D7"d2^f | "Gm" G3 :|
|: G^FE |\
"D7" A2^F FED | "Gm"B2G BAG | "F" c2A AGA | "Bb" B3 BAB |\
"D7" A2^F DFA | "Gm" B2G D2B | "A7" ^c2c =e2e | "D"^f3 ||
AG^F |\
"D7" A2^F FGA | "Gm" B2G D2G | "Cm" c2G E2E | "D7" D3 ^FED |\
"D7"A2^F c2A | "Gm" B2G d2B | "Eb" E2E "D7" D2^F | "Gm" G3 :|
